X: 5754
T: Cahir's Kitchen
R: reel
M: 4/4
K: Eminor
K: Em
E2GB E2GB|A2FA DE (3FED|E2 GB E2 GB|B^A Bc B=A GF|
E2GB E2GB|A2 FA DE (3FED|(3EFG (3FGA (3GAB (3ABc|BA GF E4:|
eB gf eB fe|dA FA DE (3FED|eB gf eB B^A|B2 Bc BA GF|
eB gf eB fe|dA FA DE (3FED|(3EFG (3FGA (3GAB (3ABc|BA GF E4:|

